Adwaita++/apps/scalable/telefono.svg

<svg fill="none" height="128" viewBox="0 0 128 128" width="128" xmlns="http://www.w3.org/2000/svg">
  <path d="m119.098 66.9016c0 14.3478-5.699 28.1079-15.845 38.2534-10.1451 10.145-23.9052 15.845-38.253 15.845-7.1043 0-14.139-1.399-20.7026-4.118-6.5635-2.719-12.5272-6.704-17.5507-11.727-5.0235-5.024-9.0084-10.9874-11.7271-17.5509s-4.118-13.5982-4.118-20.7025 1.3993-14.139 4.118-20.7026c2.7187-6.5635 6.7036-12.5272 11.7271-17.5507s10.9872-9.0084 17.5507-11.7271 13.5983-4.118 20.7026-4.118c14.3478 0 28.1079 5.6997 38.253 15.8451 10.146 10.1454 15.845 23.9055 15.845 38.2533z" fill="#3d3846" opacity=".2"/>
  <path d="m118.098 65.0984c0 14.3477-5.699 28.1079-15.845 38.2536-10.1451 10.145-23.9052 15.845-38.253 15.845-7.1043 0-14.1391-1.4-20.7026-4.118-6.5635-2.719-12.5272-6.704-17.5507-11.727-5.0235-5.0238-9.0084-10.9876-11.7271-17.5511s-4.11799-13.5982-4.11799-20.7025 1.39929-14.1391 4.11799-20.7026 6.7036-12.5273 11.7271-17.5508 10.9872-9.0083 17.5507-11.727c6.5636-2.7187 13.5983-4.118 20.7026-4.118 14.3478 0 28.1079 5.6996 38.253 15.845 10.146 10.1455 15.845 23.9056 15.845 38.2534z" fill="#77767b"/>
  <path d="m118.098 63.0984c0 14.3477-5.699 28.1079-15.845 38.2536-10.1451 10.145-23.9052 15.845-38.253 15.845-7.1043 0-14.1391-1.4-20.7026-4.118-6.5635-2.719-12.5272-6.704-17.5507-11.727-5.0235-5.0238-9.0084-10.9876-11.7271-17.5511s-4.11799-13.5982-4.11799-20.7025 1.39929-14.1391 4.11799-20.7026 6.7036-12.5273 11.7271-17.5508 10.9872-9.0083 17.5507-11.727c6.5636-2.7187 13.5983-4.118 20.7026-4.118 14.3478 0 28.1079 5.6996 38.253 15.845 10.146 10.1455 15.845 23.9056 15.845 38.2534z" fill="#c0bfbc"/>
  <path d="m102.826 63.0984c0 10.032-3.9854 19.6531-11.0792 26.7469-7.0937 7.0937-16.7148 11.0787-26.7468 11.0787-4.9674 0-9.8861-.9782-14.4754-2.8791-4.5892-1.901-8.7591-4.6872-12.2715-8.1996-3.5125-3.5125-6.2987-7.6824-8.1996-12.2716-1.901-4.5893-2.8794-9.508-2.8794-14.4753 0-4.9674.9784-9.8861 2.8794-14.4753 1.9009-4.5893 4.6871-8.7592 8.1996-12.2716 3.5124-3.5125 7.6823-6.2987 12.2715-8.1996 4.5893-1.901 9.508-2.8793 14.4754-2.8793 10.032 0 19.6531 3.9852 26.7469 11.0789 7.0937 7.0937 11.0791 16.7148 11.0791 26.7469z" fill="#deddda"/>
  <path d="m64 82.6666c-.7072 0-1.3855-.2808-1.8856-.7809s-.781-1.1785-.781-1.8857c0-.7073.2809-1.3855.781-1.8856s1.1784-.7811 1.8856-.7811c.7073 0 1.3855.281 1.8856.7811s.7811 1.1783.7811 1.8856c0 .7072-.281 1.3856-.7811 1.8857s-1.1783.7809-1.8856.7809zm-11.2761-4.6875c-.3563.0048-.7098-.0617-1.0399-.1959s-.63-.3333-.8819-.5853c-.4999-.5001-.7808-1.1783-.7808-1.8854 0-.7072.2809-1.3854.7808-1.8854.5001-.5 1.1783-.7808 1.8854-.7808.7072 0 1.3853.2808 1.8854.7808.4999.5.7809 1.1782.7809 1.8854 0 .7071-.281 1.3853-.7809 1.8854-.4911.4913-1.1544.7716-1.849.7812zm22.5522 0c-.6946-.0096-1.3579-.2899-1.849-.7812-.4999-.5001-.7808-1.1783-.7808-1.8854 0-.7072.2809-1.3854.7808-1.8854.5001-.5 1.1783-.7808 1.8854-.7808.7072 0 1.3854.2808 1.8855.7808.4999.5.7808 1.1782.7808 1.8854 0 .7071-.2809 1.3853-.7808 1.8854-.2519.252-.5518.4511-.8819.5853s-.6837.2007-1.04.1959zm-11.2761-8.6458c-1.4144 0-2.771-.5618-3.7712-1.562s-1.5621-2.3568-1.5621-3.7713.5619-2.771 1.5621-3.7712c1.0002-1.0001 2.3568-1.5621 3.7712-1.5621 1.4145 0 2.7711.562 3.7713 1.5621 1.0002 1.0002 1.5621 2.3567 1.5621 3.7712s-.5619 2.7711-1.5621 3.7713-2.3568 1.562-3.7713 1.562zm-16-2.6666c-.7072 0-1.3855-.2809-1.8856-.781s-.781-1.1785-.781-1.8857.2809-1.3855.781-1.8856 1.1784-.7811 1.8856-.7811c.7073 0 1.3855.281 1.8856.7811s.7811 1.1784.7811 1.8856-.281 1.3856-.7811 1.8857-1.1783.781-1.8856.781zm32 0c-.7072 0-1.3855-.2809-1.8856-.781s-.781-1.1785-.781-1.8857.2809-1.3855.781-1.8856 1.1784-.7811 1.8856-.7811c.7073 0 1.3855.281 1.8856.7811s.7811 1.1784.7811 1.8856-.281 1.3856-.7811 1.8857-1.1783.781-1.8856.781zm-27.3541-11.3125c-.6928-.011-1.354-.2912-1.8438-.7813-.4999-.5-.7808-1.1782-.7808-1.8854 0-.7071.2809-1.3853.7808-1.8854.5001-.5 1.1783-.7807 1.8854-.7807.7072 0 1.3853.2807 1.8854.7807.4999.5001.7809 1.1783.7809 1.8854 0 .7072-.281 1.3854-.7809 1.8854-.2525.2527-.5532.4521-.8842.5863-.3311.1342-.6857.2005-1.0428.195zm22.7083 0c-.3572.0055-.7118-.0608-1.0429-.195-.331-.1342-.6317-.3336-.8842-.5863-.4999-.5-.7808-1.1782-.7808-1.8854 0-.7071.2809-1.3853.7808-1.8854.5001-.5 1.1783-.7807 1.8854-.7807.7072 0 1.3854.2807 1.8855.7807.4999.5001.7808 1.1783.7808 1.8854 0 .7072-.2809 1.3854-.7808 1.8854-.4898.4901-1.1511.7703-1.8438.7813zm-11.3542-4.6875c-.7072 0-1.3855-.2808-1.8856-.7809s-.781-1.1785-.781-1.8858c0-.7072.2809-1.3854.781-1.8855s1.1784-.7811 1.8856-.7811c.7073 0 1.3855.281 1.8856.7811s.7811 1.1783.7811 1.8855c0 .7073-.281 1.3857-.7811 1.8858s-1.1783.7809-1.8856.7809z" fill="#3d3846"/>
</svg>

<svg width="128" height="128" viewBox="0 0 128 128" fill="none" xmlns="http://www.w3.org/2000/svg">
<path opacity="0.2" d="M119.098 66.9016C119.098 81.2494 113.399 95.0095 103.253 105.155C93.1079 115.3 79.3478 121 65 121C57.8957 121 50.861 119.601 44.2974 116.882C37.7339 114.163 31.7702 110.178 26.7467 105.155C21.7232 100.131 17.7383 94.1676 15.0196 87.6041C12.3009 81.0406 10.9016 74.0059 10.9016 66.9016C10.9016 59.7973 12.3009 52.7626 15.0196 46.199C17.7383 39.6355 21.7232 33.6718 26.7467 28.6483C31.7702 23.6248 37.7339 19.6399 44.2974 16.9212C50.8609 14.2025 57.8957 12.8032 65 12.8032C79.3478 12.8032 93.1079 18.5029 103.253 28.6483C113.399 38.7937 119.098 52.5538 119.098 66.9016Z" fill="url(#paint0_linear)"/>
<path d="M118.098 65.0984C118.098 79.4461 112.399 93.2063 102.253 103.352C92.1079 113.497 78.3478 119.197 64 119.197C56.8957 119.197 49.8609 117.797 43.2974 115.079C36.7339 112.36 30.7702 108.375 25.7467 103.352C20.7232 98.3282 16.7383 92.3644 14.0196 85.8009C11.3009 79.2374 9.90161 72.2027 9.90161 65.0984C9.90161 57.9941 11.3009 50.9593 14.0196 44.3958C16.7383 37.8323 20.7232 31.8685 25.7467 26.845C30.7702 21.8215 36.7339 17.8367 43.2974 15.118C49.861 12.3993 56.8957 11 64 11C78.3478 11 92.1079 16.6996 102.253 26.845C112.399 36.9905 118.098 50.7506 118.098 65.0984V65.0984Z" fill="url(#paint1_linear)"/>
<path d="M118.098 63.0984C118.098 77.4461 112.399 91.2063 102.253 101.352C92.1079 111.497 78.3478 117.197 64 117.197C56.8957 117.197 49.8609 115.797 43.2974 113.079C36.7339 110.36 30.7702 106.375 25.7467 101.352C20.7232 96.3282 16.7383 90.3644 14.0196 83.8009C11.3009 77.2374 9.90161 70.2027 9.90161 63.0984C9.90161 55.9941 11.3009 48.9593 14.0196 42.3958C16.7383 35.8323 20.7232 29.8685 25.7467 24.845C30.7702 19.8215 36.7339 15.8367 43.2974 13.118C49.861 10.3993 56.8957 9 64 9C78.3478 9 92.1079 14.6996 102.253 24.845C112.399 34.9905 118.098 48.7506 118.098 63.0984V63.0984Z" fill="url(#paint2_linear)"/>
<path d="M102.826 63.0984C102.826 73.1304 98.8406 82.7515 91.7468 89.8453C84.6531 96.939 75.032 100.924 65 100.924C60.0326 100.924 55.1139 99.9458 50.5246 98.0449C45.9354 96.1439 41.7655 93.3577 38.2531 89.8453C34.7406 86.3328 31.9544 82.1629 30.0535 77.5737C28.1525 72.9844 27.1741 68.0657 27.1741 63.0984C27.1741 58.131 28.1525 53.2123 30.0535 48.6231C31.9544 44.0338 34.7406 39.8639 38.2531 36.3515C41.7655 32.839 45.9354 30.0528 50.5246 28.1519C55.1139 26.2509 60.0326 25.2726 65 25.2726C75.032 25.2726 84.6531 29.2578 91.7469 36.3515C98.8406 43.4452 102.826 53.0663 102.826 63.0984V63.0984Z" fill="url(#paint3_linear)"/>
<path d="M64 82.6666C63.2928 82.6666 62.6145 82.3858 62.1144 81.8857C61.6143 81.3856 61.3334 80.7072 61.3334 80C61.3334 79.2927 61.6143 78.6145 62.1144 78.1144C62.6145 77.6143 63.2928 77.3333 64 77.3333C64.7073 77.3333 65.3855 77.6143 65.8856 78.1144C66.3857 78.6145 66.6667 79.2927 66.6667 80C66.6667 80.7072 66.3857 81.3856 65.8856 81.8857C65.3855 82.3858 64.7073 82.6666 64 82.6666ZM52.7239 77.9791C52.3676 77.9839 52.0141 77.9174 51.684 77.7832C51.3539 77.649 51.054 77.4499 50.8021 77.1979C50.3022 76.6978 50.0213 76.0196 50.0213 75.3125C50.0213 74.6053 50.3022 73.9271 50.8021 73.4271C51.3022 72.9271 51.9804 72.6463 52.6875 72.6463C53.3947 72.6463 54.0728 72.9271 54.5729 73.4271C55.0728 73.9271 55.3538 74.6053 55.3538 75.3125C55.3538 76.0196 55.0728 76.6978 54.5729 77.1979C54.0818 77.6892 53.4185 77.9695 52.7239 77.9791ZM75.2761 77.9791C74.5815 77.9695 73.9182 77.6892 73.4271 77.1979C72.9272 76.6978 72.6463 76.0196 72.6463 75.3125C72.6463 74.6053 72.9272 73.9271 73.4271 73.4271C73.9272 72.9271 74.6054 72.6463 75.3125 72.6463C76.0197 72.6463 76.6979 72.9271 77.198 73.4271C77.6979 73.9271 77.9788 74.6053 77.9788 75.3125C77.9788 76.0196 77.6979 76.6978 77.198 77.1979C76.9461 77.4499 76.6462 77.649 76.3161 77.7832C75.986 77.9174 75.6324 77.9839 75.2761 77.9791V77.9791ZM64 69.3333C62.5856 69.3333 61.229 68.7715 60.2288 67.7713C59.2286 66.7711 58.6667 65.4145 58.6667 64C58.6667 62.5855 59.2286 61.229 60.2288 60.2288C61.229 59.2287 62.5856 58.6667 64 58.6667C65.4145 58.6667 66.7711 59.2287 67.7713 60.2288C68.7715 61.229 69.3334 62.5855 69.3334 64C69.3334 65.4145 68.7715 66.7711 67.7713 67.7713C66.7711 68.7715 65.4145 69.3333 64 69.3333ZM48 66.6667C47.2928 66.6667 46.6145 66.3858 46.1144 65.8857C45.6143 65.3856 45.3334 64.7072 45.3334 64C45.3334 63.2928 45.6143 62.6145 46.1144 62.1144C46.6145 61.6143 47.2928 61.3333 48 61.3333C48.7073 61.3333 49.3855 61.6143 49.8856 62.1144C50.3857 62.6145 50.6667 63.2928 50.6667 64C50.6667 64.7072 50.3857 65.3856 49.8856 65.8857C49.3855 66.3858 48.7073 66.6667 48 66.6667ZM80 66.6667C79.2928 66.6667 78.6145 66.3858 78.1144 65.8857C77.6143 65.3856 77.3334 64.7072 77.3334 64C77.3334 63.2928 77.6143 62.6145 78.1144 62.1144C78.6145 61.6143 79.2928 61.3333 80 61.3333C80.7073 61.3333 81.3855 61.6143 81.8856 62.1144C82.3857 62.6145 82.6667 63.2928 82.6667 64C82.6667 64.7072 82.3857 65.3856 81.8856 65.8857C81.3855 66.3858 80.7073 66.6667 80 66.6667ZM52.6459 55.3542C51.9531 55.3432 51.2919 55.063 50.8021 54.5729C50.3022 54.0729 50.0213 53.3947 50.0213 52.6875C50.0213 51.9804 50.3022 51.3022 50.8021 50.8021C51.3022 50.3021 51.9804 50.0214 52.6875 50.0214C53.3947 50.0214 54.0728 50.3021 54.5729 50.8021C55.0728 51.3022 55.3538 51.9804 55.3538 52.6875C55.3538 53.3947 55.0728 54.0729 54.5729 54.5729C54.3204 54.8256 54.0197 55.025 53.6887 55.1592C53.3576 55.2934 53.003 55.3597 52.6459 55.3542ZM75.3542 55.3542C74.997 55.3597 74.6424 55.2934 74.3113 55.1592C73.9803 55.025 73.6796 54.8256 73.4271 54.5729C72.9272 54.0729 72.6463 53.3947 72.6463 52.6875C72.6463 51.9804 72.9272 51.3022 73.4271 50.8021C73.9272 50.3021 74.6054 50.0214 75.3125 50.0214C76.0197 50.0214 76.6979 50.3021 77.198 50.8021C77.6979 51.3022 77.9788 51.9804 77.9788 52.6875C77.9788 53.3947 77.6979 54.0729 77.198 54.5729C76.7082 55.063 76.0469 55.3432 75.3542 55.3542ZM64 50.6667C63.2928 50.6667 62.6145 50.3859 62.1144 49.8858C61.6143 49.3857 61.3334 48.7073 61.3334 48C61.3334 47.2928 61.6143 46.6146 62.1144 46.1145C62.6145 45.6144 63.2928 45.3334 64 45.3334C64.7073 45.3334 65.3855 45.6144 65.8856 46.1145C66.3857 46.6146 66.6667 47.2928 66.6667 48C66.6667 48.7073 66.3857 49.3857 65.8856 49.8858C65.3855 50.3859 64.7073 50.6667 64 50.6667Z" fill="url(#paint4_linear)"/>
<defs>
<linearGradient id="paint0_linear" x1="10.9016" y1="66.9016" x2="119.098" y2="66.9016" gradientUnits="userSpaceOnUse">
<stop stop-color="#3D3846"/>
</linearGradient>
<linearGradient id="paint1_linear" x1="9.90162" y1="65.0984" x2="118.098" y2="65.0984" gradientUnits="userSpaceOnUse">
<stop stop-color="#77767B"/>
</linearGradient>
<linearGradient id="paint2_linear" x1="9.9016" y1="63.0984" x2="118.098" y2="63.0984" gradientUnits="userSpaceOnUse">
<stop stop-color="#C0BFBC"/>
</linearGradient>
<linearGradient id="paint3_linear" x1="27.1741" y1="63.0984" x2="102.826" y2="63.0984" gradientUnits="userSpaceOnUse">
<stop stop-color="#DEDDDA"/>
</linearGradient>
<linearGradient id="paint4_linear" x1="45.3334" y1="64" x2="82.6667" y2="64" gradientUnits="userSpaceOnUse">
<stop stop-color="#3D3846"/>
</linearGradient>
</defs>
</svg>
